X:1
T: Charming Mollie's Reel
C:
R:Reel
Q: 232
K:G
M:4/4
L:1/8
G|G2 Bd gd BG|D2 GB AE EF|G2 Bd gd Bd|ec Bc A2 G2|
G2 Bd gd BG|D2 GB AE EF|G2 Bd gd Bd|ec Ac BG Gg|
|:fg ag fd dg|fg ag bg eg|fg ag fd dg|fd ef g2 dg|
g2 bg g2 bg|fg ag fd dg|fd ed fd ed|fd ef ge dB:|
G2 Bd gd BG|D2 GB AE EF|G2 Bd gd Bd|ec Bc A2 G2|
G2 Bd gd BG|D2 GB AE EF|G2 Bd gd Bd|ec Ac BG G||
